dist/assets/images/decorative-zipper.svg

<svg width="45" height="63" viewBox="0 0 45 63" fill="none" xmlns="http://www.w3.org/2000/svg">
<path d="M35.2701 0.326068C34.9262 0.145858 34.5332 0.134766 34.1475 0.134766C33.7366 0.134766 33.358 0.391534 33.0735 0.693183L1.48223 34.1605C1.23567 34.4213 1.00872 34.7484 1.00872 35.1013C1.00872 35.4543 0.989163 35.8177 1.13164 36.1467C1.27412 36.4757 1.5101 36.7559 1.81047 36.9527C2.11083 37.1495 2.46242 37.2541 2.82186 37.2541H16.1222L16.1248 37.2576L8.96041 60.4725C8.96041 60.8687 8.85328 61.2948 9.00451 61.681C9.15573 62.0673 9.43372 62.3911 9.79315 62.5996C10.1526 62.8082 10.5723 62.8295 10.9838 62.8295C11.3953 62.8295 11.7744 62.5728 12.0593 62.2708L43.6506 28.8034C43.8971 28.5427 44.1241 28.2156 44.1241 27.8626C44.1241 27.5097 44.1436 27.1463 44.0012 26.8173C43.8587 26.4883 43.6227 26.2081 43.3223 26.0113C43.022 25.8145 42.6704 25.7098 42.3109 25.7098H29.0106L29.008 25.7063L36.1724 2.49535C36.1724 2.09867 36.2794 1.6721 36.1277 1.28551C35.9759 0.898918 35.6303 0.534279 35.2701 0.326068Z" stroke="#0178F3" stroke-linecap="round" stroke-linejoin="round"/>
</svg>

<svg width="45" height="63" fill="none" xmlns="http://www.w3.org/2000/svg"><path d="M35.27.326c-.344-.18-.737-.191-1.123-.191-.41 0-.789.257-1.073.558L1.482 34.161c-.246.26-.473.587-.473.94s-.02.717.123 1.046a1.836 1.836 0 001.69 1.107h13.3l.003.004L8.96 60.472c0 .397-.107.823.045 1.209.15.386.429.71.788.919.36.208.78.23 1.19.23.412 0 .791-.257 1.076-.56l31.592-33.467c.246-.26.473-.587.473-.94s.02-.717-.123-1.046a1.836 1.836 0 00-1.69-1.107h-13.3l-.003-.004 7.164-23.21c0-.397.107-.824-.044-1.21-.152-.387-.498-.752-.858-.96z" stroke="#0178F3" stroke-linecap="round" stroke-linejoin="round"/></svg>
